css/images/noun-london-1039860.svg

<svg xmlns="http://www.w3.org/2000/svg" xmlns:xlink="http://www.w3.org/1999/xlink" version="1.1" x="0px" y="0px" viewBox="0 0 150 187.5" enable-background="new 0 0 150 150" xml:space="preserve"><g><g><path d="M92.8572617,32.3430557H56.6886024l18.0846214-33.941143L92.8572617,32.3430557z M60.6113434,29.9884911h28.3231888    L74.7732239,3.40996L60.6113434,29.9884911z"/></g><g><path d="M87.7514954,41.7739639H62.2485008V29.9884911h25.5029945V41.7739639z M64.6030655,39.4193954h20.793869v-7.0763397    h-20.793869V39.4193954z"/></g><g><path d="M104.6967773,72.3361664H45.3032227V63.787075l0.2569542-0.3230629    c1.6664772-2.0889854,3.5594406-4.2170639,5.3903236-6.2761574c4.9275703-5.5403557,10.022419-11.2692604,11.3290443-16.8590546    l0.2121162-0.9094048h25.0276031l0.2040634,0.9220543c1.2428207,5.6047363,6.4187241,11.400322,11.424469,17.0039139    c1.7894974,2.0039063,3.6399231,4.074501,5.2874298,6.1128998l0.2615509,0.3242111V72.3361664z M47.6577873,69.9816055h54.6844215    v-5.3644562c-1.5457535-1.8912392-3.2748871-3.8273163-4.9505615-5.7036095    c-4.9488373-5.5392075-10.0574875-11.2589149-11.7331619-17.139576H64.3317413    c-1.7228127,5.8473206-6.7509804,11.5014954-11.6216431,16.9786186c-1.7159119,1.9291801-3.4864349,3.9204407-5.0523109,5.8599663    V69.9816055z"/></g><g><path d="M104.6967773,127.5592194H45.3032227v-47.894928h59.3935547V127.5592194z M47.6577873,125.2046585h54.6844215V82.0188599    H47.6577873V125.2046585z"/></g><g><path d="M99.7042465,82.0188599H84.4892502V69.9816055h15.2149963V82.0188599z M86.8438187,79.6642914h10.505867v-7.328125    h-10.505867V79.6642914z"/></g><g><path d="M64.6030655,82.0188599H49.3880692V69.9816055h15.2149963V82.0188599z M51.7426338,79.6642914h10.505867v-7.328125    h-10.505867V79.6642914z"/></g><g><path d="M74.9997101,121.8855057c-10.0764542,0-18.2737427-8.1972885-18.2737427-18.2731705    c0-10.077034,8.1972885-18.2743225,18.2737427-18.2743225s18.2743225,8.1972885,18.2743225,18.2743225    C93.2740326,113.6882172,85.0761719,121.8855057,74.9997101,121.8855057z M74.9997101,87.6925735    c-8.7778778,0-15.919178,7.1418762-15.919178,15.9197617s7.1413002,15.918602,15.919178,15.918602    c8.7784576,0,15.9197617-7.1407242,15.9197617-15.918602S83.7781677,87.6925735,74.9997101,87.6925735z"/></g><g><polygon points="81.4805145,105.9990921 72.612381,105.9990921 72.612381,92.6431427 74.9669495,92.6431427     74.9669495,103.6445236 81.4805145,103.6445236   "/></g><g><rect x="74.2207947" y="126.3819427" width="2.3545649" height="17.9547062"/></g><g><rect x="62.1168633" y="126.3819427" width="2.3545649" height="21.5854282"/></g><g><rect x="50.012928" y="126.3819427" width="2.3545649" height="25.2161484"/></g><g><rect x="86.3247299" y="126.3819427" width="2.3545649" height="21.5854282"/></g><g><rect x="98.428093" y="126.3819427" width="2.3545649" height="25.2161484"/></g></g><text x="0" y="165" fill="#000000" font-size="5px" font-weight="bold" font-family="'Helvetica Neue', Helvetica, Arial-Unicode, Arial, Sans-serif">Created by DinosoftLabs</text><text x="0" y="170" fill="#000000" font-size="5px" font-weight="bold" font-family="'Helvetica Neue', Helvetica, Arial-Unicode, Arial, Sans-serif">from the Noun Project</text></svg>

<svg width="150" height="188" viewBox="0 0 150 188" fill="none" xmlns="http://www.w3.org/2000/svg">
<g clip-path="url(#clip0_1_188)">
<path d="M92.8573 32.3431H56.6886L74.7732 -1.59809L92.8573 32.3431ZM60.6113 29.9885H88.9345L74.7732 3.40996L60.6113 29.9885Z" fill="black"/>
<path d="M87.7515 41.774H62.2485V29.9885H87.7515V41.774ZM64.6031 39.4194H85.3969V32.3431H64.6031V39.4194Z" fill="black"/>
<path d="M104.697 72.3362H45.3032V63.7871L45.5602 63.464C47.2267 61.375 49.1196 59.2469 50.9505 57.1879C55.8781 51.6475 60.9729 45.9186 62.2795 40.3288L62.4917 39.4194H87.5193L87.7233 40.3414C88.9661 45.9462 94.1421 51.7418 99.1478 57.3454C100.937 59.3493 102.788 61.4199 104.435 63.4583L104.697 63.7825V72.3362ZM47.6578 69.9816H102.342V64.6171C100.796 62.7259 99.0673 60.7898 97.3916 58.9135C92.4428 53.3743 87.3342 47.6546 85.6585 41.774H64.3317C62.6089 47.6213 57.5808 53.2755 52.7101 58.7526C50.9942 60.6818 49.2237 62.673 47.6578 64.6125V69.9816Z" fill="black"/>
<path d="M104.697 127.559H45.3032V79.6643H104.697V127.559ZM47.6578 125.205H102.342V82.0189H47.6578V125.205Z" fill="black"/>
<path d="M99.7043 82.0189H84.4893V69.9816H99.7043V82.0189ZM86.8438 79.6643H97.3497V72.3362H86.8438V79.6643Z" fill="black"/>
<path d="M64.6031 82.0189H49.3881V69.9816H64.6031V82.0189ZM51.7426 79.6643H62.2485V72.3362H51.7426V79.6643Z" fill="black"/>
<path d="M74.9997 121.886C64.9232 121.886 56.726 113.688 56.726 103.612C56.726 93.5353 64.9232 85.338 74.9997 85.338C85.0761 85.338 93.274 93.5353 93.274 103.612C93.274 113.688 85.0762 121.886 74.9997 121.886ZM74.9997 87.6926C66.2218 87.6926 59.0805 94.8344 59.0805 103.612C59.0805 112.39 66.2218 119.531 74.9997 119.531C83.7782 119.531 90.9195 112.39 90.9195 103.612C90.9195 94.8345 83.7782 87.6926 74.9997 87.6926Z" fill="black"/>
<path d="M81.4805 105.999H72.6124V92.6431H74.9669V103.645H81.4805V105.999Z" fill="black"/>
<path d="M76.5754 126.382H74.2208V144.337H76.5754V126.382Z" fill="black"/>
<path d="M64.4714 126.382H62.1169V147.967H64.4714V126.382Z" fill="black"/>
<path d="M52.3675 126.382H50.0129V151.598H52.3675V126.382Z" fill="black"/>
<path d="M88.6793 126.382H86.3247V147.967H88.6793V126.382Z" fill="black"/>
<path d="M100.783 126.382H98.4281V151.598H100.783V126.382Z" fill="black"/>
</g>
<defs>
<clipPath id="clip0_1_188">
<rect width="150" height="187.5" fill="white"/>
</clipPath>
</defs>
</svg>
